X:1
P: Hamish's Tune
C: Hamish Menzies, via Barbara McOwen
C: arr. T. Traub 5-4-06
M: 4/4
L: 1/4
R: reel
K: A
E|"A"E A A c|c e e2|"A"e2 "F#"f>e|"Bm"e d "E7"d E|"E"E G G B|B d d2|"F#"g> f g> f|"E"f e f e||
"A"E A/A/ A c|c e e2|"A"e2 "A"a>g|"D"g f "Bm"f2|"E7"g f g f|"A"f e "F#"f e|"Bm"e>d "E"c B|"A"A2 A||
"A"E/E/|"A"E A c A |E A c A|"A"c2 d>c|"Bm"c B B E-|"E7"E G B G|E G B G|"F#"g>f g>f|"E"f e f e||
"A"E A c A|E A c A|"A"e2 "A"a>g|"D"g f "Bm"f2|"E7"g f g f|"A"f e "F#"f e|"Bm"e>d "E"c B|"A"A2 A|]
